X:107
T:Marsch # 107
M:1/4
L:1/8
K:D
Q:160
A2 |: d4d2d2 | d2cd e2de | f4f2f2 | f2ef g2fg | a2ga b2a2 | a2ga b2ag |
f4 e2 ce | d6 A2 :| dfaf d2d2 | dfaf d2d2 | e2e2 efed | cBAG FEDE |
D2d2d2d2 | d2cd e2de | f4f2f2 | f2ef g2fg | a2ga b2a2 | a2ga b2ag |
f4 e2 ce | d8:|
